app/assets/images/payment_icons/synchrony_pay.svg

<svg xmlns="http://www.w3.org/2000/svg" viewBox="0 0 38 24" width="38" height="24" role="img" aria-labelledby="pi-synchrony_pay"><title id="pi-synchrony_pay">Synchrony Pay</title><rect width="38" height="24" fill="white"/><mask id="mask0_1765_4748" style="mask-type:alpha" maskUnits="userSpaceOnUse" x="5" y="5" width="4" height="14"><path fill-rule="evenodd" clip-rule="evenodd" d="M5.83481 5.19455H8.32609V18.4242H5.83481V5.19455Z" fill="white"/></mask><g mask="url(#mask0_1765_4748)"><path fill-rule="evenodd" clip-rule="evenodd" d="M8.32606 17.9475C8.32782 18.3005 8.25801 18.4448 7.87257 18.4219C7.22637 18.3847 6.57636 18.3996 5.9281 18.3929C5.80784 18.2378 5.8404 18.0554 5.8404 17.8809C5.83893 13.8297 5.83893 9.77761 5.84128 5.72638C5.84128 5.55368 5.79992 5.36984 5.92634 5.21562C6.60393 5.21122 7.28181 5.22002 7.9594 5.19539C8.25889 5.18395 8.32606 5.28921 8.3243 5.57069C8.31198 7.07337 8.31814 8.57635 8.31814 10.0793C8.31814 12.702 8.31198 15.3248 8.32606 17.9475Z" fill="#FAC90D"/></g><path fill-rule="evenodd" clip-rule="evenodd" d="M12.0725 11.4797C12.0764 11.7433 12.0068 11.8424 11.7273 11.8336C11.0949 11.8142 10.4601 11.8177 9.82712 11.8327C9.57545 11.8391 9.49302 11.7532 9.4939 11.5064C9.50006 9.50317 9.50006 7.50116 9.4939 5.49886C9.49302 5.2684 9.56577 5.19158 9.79779 5.19686C10.4308 5.21005 11.0647 5.21386 11.6983 5.1951C11.9807 5.18718 12.0796 5.26342 12.0743 5.56073C12.0567 6.54678 12.0673 7.53371 12.0673 8.51976C12.0673 9.50669 12.0594 10.4936 12.0725 11.4797Z" fill="#FAC90D"/><mask id="mask1_1765_4748" style="mask-type:alpha" maskUnits="userSpaceOnUse" x="2" y="11" width="3" height="8"><path fill-rule="evenodd" clip-rule="evenodd" d="M2 11.8746H4.51327V18.417H2V11.8746Z" fill="white"/></mask><g mask="url(#mask1_1765_4748)"><path fill-rule="evenodd" clip-rule="evenodd" d="M4.42108 18.393C3.71533 18.3997 3.0087 18.3997 2.30266 18.4167C2.06888 18.4223 1.99907 18.3291 1.99995 18.1054C2.01227 16.0465 2.01784 13.9867 2.02488 11.9269C2.7714 11.8269 3.52144 11.904 4.26942 11.8873C4.54134 11.8809 4.50585 12.1023 4.5079 12.2711C4.51465 12.9484 4.51054 13.6263 4.51054 14.3036C4.51054 15.4967 4.5123 16.6889 4.50966 17.8822C4.50878 18.0558 4.54222 18.2382 4.42108 18.393Z" fill="#FAC90D"/></g><path fill-rule="evenodd" clip-rule="evenodd" d="M5.92806 18.3927C5.61274 18.366 5.76497 18.1188 5.76409 17.9854C5.75353 15.3351 5.75617 12.6851 5.75617 10.0351C5.75617 8.54828 5.75265 7.06114 5.76263 5.574C5.76321 5.44997 5.63415 5.22449 5.9263 5.2157C5.92718 9.60851 5.92718 14.0007 5.92806 18.3927Z" fill="#FAC90D"/><path fill-rule="evenodd" clip-rule="evenodd" d="M4.56985 18.1343C4.56985 18.2431 4.60974 18.3864 4.42113 18.3929C4.42201 16.3932 4.41409 14.3936 4.42963 12.3942C4.43257 12.0356 4.34398 11.9001 3.96588 11.918C3.32027 11.947 2.67201 11.9268 2.02493 11.9268C2.05691 11.811 2.15429 11.8248 2.23936 11.8248C2.91665 11.8233 3.59482 11.8312 4.27212 11.8198C4.50502 11.8151 4.57601 11.8975 4.57513 12.125C4.56897 14.1282 4.57249 16.1311 4.56985 18.1343Z" fill="#FAC90D"/><rect x="15.4982" y="5.19455" width="20.5018" height="13.1521" rx="0.773652" fill="#393840"/><path d="M20.3796 12.7335V14.8652H19.133V8.815H21.4933C21.9476 8.815 22.3465 8.89811 22.69 9.06432C23.0363 9.23053 23.3022 9.46739 23.4878 9.77489C23.6734 10.0796 23.7663 10.4273 23.7663 10.8179C23.7663 11.4107 23.5626 11.8789 23.1554 12.2224C22.751 12.5631 22.19 12.7335 21.4725 12.7335H20.3796ZM20.3796 11.7238H21.4933C21.8229 11.7238 22.0736 11.6462 22.2454 11.4911C22.4199 11.3359 22.5072 11.1143 22.5072 10.8262C22.5072 10.5298 22.4199 10.2902 22.2454 10.1073C22.0709 9.92448 21.8299 9.83029 21.5224 9.82475H20.3796V11.7238Z" fill="white"/><path d="M27.103 14.8652C27.0476 14.7572 27.0074 14.6228 26.9825 14.4621C26.6916 14.7863 26.3135 14.9483 25.8481 14.9483C25.4076 14.9483 25.0419 14.8209 24.7511 14.566C24.463 14.3112 24.3189 13.9898 24.3189 13.602C24.3189 13.1255 24.4948 12.7598 24.8466 12.505C25.2012 12.2501 25.7123 12.1213 26.38 12.1185H26.9326V11.8609C26.9326 11.6531 26.8786 11.4869 26.7706 11.3622C26.6653 11.2376 26.4977 11.1752 26.2678 11.1752C26.0656 11.1752 25.9063 11.2237 25.7899 11.3207C25.6763 11.4176 25.6195 11.5506 25.6195 11.7196H24.4186C24.4186 11.4592 24.499 11.2182 24.6597 10.9966C24.8203 10.7749 25.0475 10.6018 25.3411 10.4771C25.6348 10.3497 25.9644 10.286 26.3301 10.286C26.8842 10.286 27.3232 10.4259 27.6474 10.7057C27.9742 10.9827 28.1377 11.3733 28.1377 11.8775V13.8264C28.1405 14.253 28.2 14.5757 28.3164 14.7946V14.8652H27.103ZM26.1099 14.03C26.2872 14.03 26.4506 13.9912 26.6002 13.9136C26.7498 13.8333 26.8606 13.7266 26.9326 13.5937V12.8208H26.4839C25.8827 12.8208 25.5628 13.0285 25.524 13.4441L25.5198 13.5147C25.5198 13.6643 25.5724 13.7876 25.6777 13.8845C25.783 13.9815 25.927 14.03 26.1099 14.03Z" fill="white"/><path d="M30.6725 13.1657L31.5035 10.3691H32.7917L30.9841 15.5633L30.8844 15.8002C30.6157 16.3874 30.1724 16.6811 29.5547 16.6811C29.3801 16.6811 29.2028 16.6548 29.0228 16.6021V15.6921L29.2056 15.6963C29.4328 15.6963 29.6018 15.6616 29.7126 15.5924C29.8262 15.5231 29.9148 15.4082 29.9785 15.2475L30.1198 14.8777L28.5449 10.3691H29.8372L30.6725 13.1657Z" fill="white"/></svg>

<svg xmlns="http://www.w3.org/2000/svg" viewBox="0 0 38 24" width="38" height="24" role="img" aria-labelledby="pi-synchrony_pay"><title id="pi-synchrony_pay">Synchrony Pay</title><path fill="#fff" d="M0 0h38v24H0z"/><mask id="mask0_1765_4748" style="mask-type:alpha" maskUnits="userSpaceOnUse" x="5" y="5" width="4" height="14"><path fill-rule="evenodd" clip-rule="evenodd" d="M5.835 5.195h2.491v13.23H5.835V5.194z" fill="#fff"/></mask><g mask="url(#mask0_1765_4748)"><path fill-rule="evenodd" clip-rule="evenodd" d="M8.326 17.948c.002.352-.068.497-.453.474-.647-.037-1.297-.022-1.945-.03-.12-.154-.088-.337-.088-.511-.001-4.051-.001-8.103.001-12.155 0-.172-.041-.356.085-.51.678-.005 1.356.004 2.033-.02.3-.012.367.093.365.375-.012 1.502-.006 3.005-.006 4.508 0 2.623-.006 5.246.008 7.869z" fill="#FAC90D"/></g><path fill-rule="evenodd" clip-rule="evenodd" d="M12.072 11.48c.004.263-.065.362-.345.354a34.993 34.993 0 00-1.9-.001c-.252.006-.334-.08-.333-.327.006-2.003.006-4.005 0-6.007-.001-.23.072-.307.304-.302a37.69 37.69 0 001.9-.002c.283-.008.382.068.376.366-.017.986-.007 1.973-.007 2.959 0 .987-.008 1.974.005 2.96z" fill="#FAC90D"/><mask id="mask1_1765_4748" style="mask-type:alpha" maskUnits="userSpaceOnUse" x="2" y="11" width="3" height="8"><path fill-rule="evenodd" clip-rule="evenodd" d="M2 11.875h2.513v6.542H2v-6.542z" fill="#fff"/></mask><g mask="url(#mask1_1765_4748)"><path fill-rule="evenodd" clip-rule="evenodd" d="M4.421 18.393c-.706.007-1.412.007-2.118.024-.234.005-.304-.088-.303-.312.012-2.058.018-4.118.025-6.178.746-.1 1.496-.023 2.244-.04.272-.006.237.215.239.384.007.677.003 1.355.003 2.033 0 1.193.001 2.385-.001 3.578-.001.174.032.356-.089.511z" fill="#FAC90D"/></g><path fill-rule="evenodd" clip-rule="evenodd" d="M5.928 18.393c-.315-.027-.163-.274-.164-.408-.01-2.65-.008-5.3-.008-7.95 0-1.487-.003-2.974.007-4.461 0-.124-.129-.35.163-.358l.002 13.177zM4.57 18.134c0 .11.04.252-.149.259.001-2-.007-4 .009-5.999.003-.358-.086-.494-.464-.476-.646.029-1.294.009-1.941.009.032-.116.13-.102.214-.102.678-.002 1.356.006 2.033-.005.233-.005.304.078.303.305-.006 2.003-.003 4.006-.005 6.01z" fill="#FAC90D"/><rect x="15.498" y="5.195" width="20.502" height="13.152" rx=".774" fill="#393840"/><path d="M20.38 12.733v2.132h-1.247v-6.05h2.36c.455 0 .854.083 1.197.25.346.166.612.402.798.71.185.305.278.652.278 1.043 0 .593-.203 1.06-.61 1.404-.405.341-.966.511-1.683.511H20.38zm0-1.01h1.113c.33 0 .58-.077.752-.232.175-.155.262-.377.262-.665 0-.296-.087-.536-.262-.719-.174-.183-.415-.277-.723-.282H20.38v1.899zM27.103 14.865a1.332 1.332 0 01-.12-.403c-.291.324-.67.486-1.135.486-.44 0-.806-.127-1.097-.382a1.232 1.232 0 01-.432-.964c0-.476.176-.842.528-1.097.354-.255.865-.384 1.533-.387h.553v-.257c0-.208-.054-.374-.162-.499-.106-.124-.273-.187-.503-.187-.202 0-.362.049-.478.146a.497.497 0 00-.17.399h-1.201c0-.26.08-.502.24-.723.161-.222.389-.395.682-.52a2.46 2.46 0 01.99-.191c.553 0 .992.14 1.316.42.327.277.49.667.49 1.171v1.95c.003.426.063.749.18.968v.07h-1.214zm-.993-.835c.177 0 .34-.039.49-.116a.79.79 0 00.333-.32v-.773h-.45c-.6 0-.92.207-.959.623l-.004.07c0 .15.052.274.158.37.105.098.249.146.432.146zM30.672 13.166l.831-2.797h1.289l-1.808 5.194-.1.237c-.268.587-.712.881-1.33.881-.174 0-.351-.026-.531-.079v-.91l.183.004c.227 0 .396-.034.507-.104a.678.678 0 00.265-.345l.142-.37-1.575-4.508h1.292l.835 2.797z" fill="#fff"/></svg>
